; generated by Slic3r 1.2.9 on 2016-01-24 at 23:33:47

; external perimeters extrusion width = 0.40mm
; perimeters extrusion width = 0.48mm
; infill extrusion width = 0.48mm
; solid infill extrusion width = 0.48mm
; top infill extrusion width = 0.48mm

M107
M190 S65 ; set bed temperature
M104 S205 ; set temperature
G28 ; home all axes
G1 Z5 F5000 ; lift nozzle

M109 S205 ; wait for temperature to be reached
G21 ; set units to millimeters
G90 ; use absolute coordinates
M82 ; use absolute distances for extrusion
G92 E0
G1 Z0.400 F7800.000
G1 E-2.00000 F2400.00000
G92 E0
G1 X29.743 Y99.155 F7800.000
G1 E2.00000 F2400.00000
G1 X31.000 Y99.036 E2.14997 F1800.000
G1 X197.000 Y99.036 E21.86499
G1 X199.275 Y99.433 E22.13921
G1 X201.280 Y100.577 E22.41344 F1800.000
G1 X202.780 Y102.333 E22.68766
G1 X203.595 Y104.493 E22.96189
G1 X203.714 Y105.750 E23.11185
G1 X203.714 Y148.250 E28.15937
G1 X203.317 Y150.525 E28.43360
G1 X202.173 Y152.530 E28.70782
G1 X200.417 Y154.030 E28.98205
G1 X198.257 Y154.845 E29.25627
G1 X197.000 Y154.964 E29.40624
G1 X31.000 Y154.964 E49.12126
G1 X28.725 Y154.567 E49.39548
G1 X26.720 Y153.423 E49.66971
G1 X25.220 Y151.667 E49.94393
G1 X24.405 Y149.507 E50.21816
G1 X24.286 Y148.250 E50.36812
G1 X24.286 Y105.750 E55.41564
G1 X24.683 Y103.475 E55.68987
G1 X25.827 Y101.470 E55.96409
G1 X27.583 Y99.970 E56.23832
G1 X29.687 Y99.176 E56.50542
G1 E54.50542 F2400.00000
G92 E0
G1 X29.743 Y101.822 F7800.000
G1 E2.00000 F2400.00000
G1 X198.627 Y101.822 E22.05755 F1800.000
G1 X200.928 Y104.123 E22.44401
G1 X200.928 Y149.877 E27.87798 F1800.000
G1 X198.627 Y152.178 E28.26444
G1 X29.373 Y152.178 E48.36592
G1 X27.072 Y149.877 E48.75237
G1 X27.072 Y104.123 E54.18635
G1 X29.373 Y101.822 E54.57281
G1 X29.683 Y101.822 E54.60961
G1 X29.743 Y102.536 F7800.000
G1 X198.331 Y102.536 E74.63202 F1800.000
G1 X200.214 Y104.419 E74.94822 F1800.000
G1 X200.214 Y149.581 E80.31193
G1 X198.331 Y151.464 E80.62812
G1 X29.669 Y151.464 E100.65933
G1 X27.786 Y149.581 E100.97552
G1 X27.786 Y104.419 E106.33924
G1 X29.683 Y102.536 E106.65661
G1 X29.965 Y103.250 F7800.000
G1 X198.035 Y103.250 E126.61756 F1800.000
G1 X199.500 Y104.715 E126.86348
G1 X199.500 Y149.285 E132.15693 F1800.000
G1 X198.035 Y150.750 E132.40286
G1 X29.965 Y150.750 E152.36380
G1 X28.500 Y149.285 E152.60973
G1 X28.500 Y104.715 E157.90318
G1 X29.922 Y103.293 E158.14198
G1 X30.260 Y103.965 F7800.000
G1 X197.740 Y103.965 E178.03266 F1800.000
G1 X198.785 Y105.010 E178.20832 F1800.000
G1 X198.785 Y148.990 E183.43151
G1 X197.740 Y150.035 E183.60717
G1 X30.260 Y150.035 E203.49785
G1 X29.215 Y148.990 E203.67351
G1 X29.215 Y105.010 E208.89669
G1 X30.218 Y104.007 E209.06523
G1 X30.556 Y104.679 F7800.000
G1 X197.444 Y104.679 E228.88565 F1800.000
G1 X198.071 Y105.306 E228.99104
G1 X198.071 Y148.694 E234.14396 F1800.000
G1 X197.444 Y149.321 E234.24936
G1 X30.556 Y149.321 E254.06977
G1 X29.929 Y148.694 E254.17517
G1 X29.929 Y105.306 E259.32809
G1 X30.514 Y104.721 E259.42636
G1 X30.852 Y105.393 F7800.000
G1 X197.148 Y105.393 E279.17651 F1800.000
G1 X197.357 Y105.602 E279.21164 F1800.000
G1 X197.357 Y148.398 E284.29430
G1 X197.148 Y148.607 E284.32943
G1 X30.852 Y148.607 E304.07958
G1 X30.643 Y148.398 E304.11471
G1 X30.643 Y105.602 E309.19737
G1 X30.810 Y105.435 E309.22537
G1 E307.22537 F2400.00000
G92 E0
G1 X31.400 Y147.850 F7800.000
G1 E2.00000 F2400.00000
G1 X31.400 Y106.150 E6.95251 F1800.000
G1 X196.600 Y106.150 E26.57252
G1 X196.600 Y147.850 E31.52502
G1 X31.460 Y147.850 E51.13790
G1 X31.600 Y147.504 F7800.000
G1 X32.114 Y147.136 F7800.000
G1 X32.114 Y106.864 E55.92078 F1800.000
G1 X195.886 Y106.864 E75.37115
G1 X195.886 Y147.136 E80.15402
G1 X32.174 Y147.136 E99.59727
G1 X32.828 Y146.422 F7800.000
G1 X32.828 Y107.578 E104.21051 F1800.000
G1 X195.172 Y107.578 E123.49125
G1 X195.172 Y146.422 E128.10449
G1 X32.888 Y146.422 E147.37810
G1 X38.208 Y132.751 F7800.000
G1 X37.853 Y132.570 E147.42545 F1800.000
G1 X37.629 Y132.407 E147.45828
G1 X37.428 Y132.218 E147.49110
G1 X37.183 Y131.903 E147.53846
G1 X36.999 Y131.542 E147.58656
G1 X36.886 Y131.153 E147.63466
G1 X36.848 Y130.750 E147.68276
G1 X36.886 Y130.347 E147.73085
G1 X36.999 Y129.958 E147.77895
G1 X37.183 Y129.597 E147.82705
G1 X37.431 Y129.277 E147.87516
G1 X37.735 Y129.009 E147.92326
G1 X38.084 Y128.803 E147.97136
G1 X38.459 Y128.668 E148.01870
G1 X38.730 Y128.616 E148.05152
G1 X39.003 Y128.599 E148.08392 F1800.000
G1 X39.403 Y128.636 E148.13168
G1 X39.792 Y128.749 E148.17980
G1 X40.153 Y128.933 E148.22790
G1 X40.473 Y129.181 E148.27601
G1 X40.741 Y129.485 E148.32411
G1 X40.947 Y129.834 E148.37224
G1 X41.083 Y130.213 E148.42000
G1 X41.134 Y130.481 E148.45240
G1 X41.151 Y130.756 E148.48521
G1 X41.114 Y131.153 E148.53255
G1 X41.001 Y131.542 E148.58065
G1 X40.817 Y131.903 E148.62875
G1 X40.572 Y132.218 E148.67611
G1 X40.371 Y132.407 E148.70893
G1 X40.147 Y132.570 E148.74176
G1 X39.792 Y132.751 E148.78911
G1 X39.403 Y132.864 E148.83721
G1 X39.000 Y132.902 E148.88531
G1 X38.597 Y132.864 E148.93341
G1 X38.266 Y132.767 E148.97438
G1 X37.888 Y132.988 F7800.000
G1 X38.009 Y133.436 F7800.000
G1 X37.478 Y133.181 E149.04431 F1800.000
G1 X37.173 Y132.959 E149.08915
G1 X36.898 Y132.700 E149.13399
G1 X36.577 Y132.287 E149.19604
G1 X36.332 Y131.806 E149.26018
G1 X36.182 Y131.288 E149.32431
G1 X36.131 Y130.750 E149.38844
G1 X36.182 Y130.212 E149.45258
G1 X36.332 Y129.694 E149.51671
G1 X36.577 Y129.213 E149.58084
G1 X36.908 Y128.786 E149.64499
G1 X37.314 Y128.429 E149.70914
G1 X37.778 Y128.154 E149.77326
G1 X38.270 Y127.977 E149.83528
G1 X38.640 Y127.906 E149.88010
G1 X39.013 Y127.883 E149.92446 F1800.000
G1 X39.537 Y127.931 E149.98693
G1 X40.056 Y128.082 E150.05114
G1 X40.537 Y128.327 E150.11528
G1 X40.964 Y128.659 E150.17943
G1 X41.321 Y129.064 E150.24356
G1 X41.596 Y129.529 E150.30777
G1 X41.774 Y130.024 E150.37025
G1 X41.844 Y130.391 E150.41461
G1 X41.867 Y130.768 E150.45941
G1 X41.818 Y131.288 E150.52145
G1 X41.668 Y131.806 E150.58558
G1 X41.423 Y132.287 E150.64971
G1 X41.102 Y132.700 E150.71177
G1 X40.827 Y132.959 E150.75660
G1 X40.522 Y133.181 E150.80144
G1 X40.056 Y133.418 E150.86349
G1 X39.538 Y133.568 E150.92761
G1 X39.000 Y133.619 E150.99175
G1 X38.462 Y133.568 E151.05589
G1 X38.066 Y133.453 E151.10488
G1 X37.809 Y134.122 F7800.000
G1 X37.680 Y134.085 E151.12090 F1800.000
G1 X37.104 Y133.791 E151.19764
G1 X36.717 Y133.510 E151.25449
G1 X36.368 Y133.182 E151.31134
G1 X35.972 Y132.672 E151.38810
G1 X35.665 Y132.070 E151.46826
G1 X35.477 Y131.422 E151.54843
G1 X35.414 Y130.750 E151.62859
G1 X35.477 Y130.078 E151.70876
G1 X35.665 Y129.430 E151.78893
G1 X35.972 Y128.828 E151.86909
G1 X36.386 Y128.295 E151.94928
G1 X36.892 Y127.848 E152.02948
G1 X37.473 Y127.505 E152.10963
G1 X38.081 Y127.286 E152.18633
G1 X38.551 Y127.196 E152.24314
G1 X39.024 Y127.166 E152.29946 F1800.000
G1 X39.671 Y127.227 E152.37665
G1 X40.320 Y127.415 E152.45695
G1 X40.922 Y127.722 E152.53712
G1 X41.455 Y128.136 E152.61731
G1 X41.902 Y128.642 E152.69747
G1 X42.246 Y129.224 E152.77777
G1 X42.465 Y129.836 E152.85497
G1 X42.554 Y130.302 E152.91128
G1 X42.584 Y130.779 E152.96807
G1 X42.523 Y131.422 E153.04481
G1 X42.335 Y132.070 E153.12497
G1 X42.028 Y132.672 E153.20514
G1 X41.632 Y133.182 E153.28189
G1 X41.283 Y133.510 E153.33873
G1 X40.896 Y133.791 E153.39559
G1 X40.320 Y134.085 E153.47233
G1 X39.672 Y134.273 E153.55248
G1 X39.000 Y134.336 E153.63266
G1 X38.328 Y134.273 E153.71283
G1 X37.867 Y134.139 E153.76984
G1 X50.034 Y129.284 F7800.000
G1 X49.915 Y128.984 E153.80817 F1800.000
G1 X49.799 Y128.586 E153.85742
G1 X49.651 Y127.808 E153.95139
G1 X49.612 Y127.396 E154.00064
G1 X49.612 Y126.604 E154.09460
G1 X49.651 Y126.193 E154.14374
G1 X49.789 Y125.450 E154.23341
G1 X49.915 Y125.016 E154.28709
G1 X50.208 Y124.275 E154.38180
G1 X50.593 Y123.576 E154.47653
G1 X50.826 Y123.233 E154.52577
G1 X51.330 Y122.623 E154.61974
G1 X51.619 Y122.334 E154.66823
G1 X51.925 Y122.064 E154.71674
G1 X52.570 Y121.596 E154.81145
G1 X53.275 Y121.208 E154.90690
G1 X54.052 Y120.900 E155.00622
G1 X57.948 Y120.900 E155.46897 F1800.000
G1 X58.725 Y121.208 E155.56829
G1 X59.424 Y121.593 E155.66299
G1 X59.767 Y121.826 E155.71224
G1 X60.377 Y122.330 E155.80620
G1 X60.666 Y122.619 E155.85470
G1 X60.936 Y122.925 E155.90321
G1 X61.404 Y123.570 E155.99791
G1 X61.792 Y124.275 E156.09339
G1 X62.085 Y125.016 E156.18810
G1 X62.201 Y125.414 E156.23735
G1 X62.349 Y126.192 E156.33131
G1 X62.388 Y126.604 E156.38057
G1 X62.388 Y127.396 E156.47453
G1 X62.349 Y127.807 E156.52367
G1 X62.211 Y128.550 E156.61334
G1 X62.085 Y128.984 E156.66701
G1 X61.792 Y129.725 E156.76173
G1 X61.407 Y130.424 E156.85645
G1 X61.174 Y130.767 E156.90570
G1 X60.670 Y131.377 E156.99967
G1 X60.381 Y131.666 E157.04816
G1 X60.075 Y131.936 E157.09667
G1 X59.430 Y132.404 E157.19138
G1 X58.725 Y132.792 E157.28683
G1 X57.948 Y133.100 E157.38615
G1 X54.052 Y133.100 E157.84890
G1 X53.275 Y132.792 E157.94822
G1 X52.576 Y132.407 E158.04292
G1 X52.233 Y132.174 E158.09216
G1 X51.623 Y131.670 E158.18613
G1 X51.334 Y131.381 E158.23463
G1 X51.064 Y131.075 E158.28313
G1 X50.596 Y130.430 E158.37784
G1 X50.208 Y129.725 E158.47331
G1 X50.056 Y129.340 E158.52257
G1 X49.714 Y129.237 F7800.000
G1 X49.370 Y129.547 F7800.000
G1 X49.238 Y129.215 E158.56490 F1800.000
G1 X49.104 Y128.753 E158.62214
G1 X48.943 Y127.909 E158.72410
G1 X48.898 Y127.429 E158.78136
G1 X48.898 Y126.571 E158.88332
G1 X48.943 Y126.093 E158.94026
G1 X49.093 Y125.285 E159.03793
G1 X49.238 Y124.785 E159.09981
G1 X49.561 Y123.970 E159.20385
G1 X49.983 Y123.202 E159.30792
G1 X50.254 Y122.804 E159.36517
G1 X50.801 Y122.142 E159.46713
G1 X51.130 Y121.814 E159.52229
G1 X51.478 Y121.506 E159.57746
G1 X52.187 Y120.991 E159.68150
G1 X52.970 Y120.561 E159.78760
G1 X53.915 Y120.186 E159.90844
G1 X58.085 Y120.186 E160.40361 F1800.000
G1 X59.030 Y120.561 E160.52445
G1 X59.798 Y120.983 E160.62846
G1 X60.196 Y121.254 E160.68570
G1 X60.858 Y121.801 E160.78767
G1 X61.186 Y122.130 E160.84283
G1 X61.494 Y122.478 E160.89800
G1 X62.009 Y123.187 E161.00204
G1 X62.439 Y123.970 E161.10819
G1 X62.762 Y124.785 E161.21224
G1 X62.896 Y125.247 E161.26948
G1 X63.057 Y126.091 E161.37145
G1 X63.102 Y126.571 E161.42870
G1 X63.102 Y127.429 E161.53067
G1 X63.057 Y127.907 E161.58761
G1 X62.907 Y128.715 E161.68528
G1 X62.762 Y129.215 E161.74715
G1 X62.439 Y130.030 E161.85120
G1 X62.017 Y130.798 E161.95527
G1 X61.746 Y131.196 E162.01251
G1 X61.199 Y131.858 E162.11447
G1 X60.870 Y132.186 E162.16964
G1 X60.522 Y132.494 E162.22481
G1 X59.813 Y133.009 E162.32885
G1 X59.030 Y133.439 E162.43495
G1 X58.085 Y133.814 E162.55578
G1 X53.915 Y133.814 E163.05095
G1 X52.970 Y133.439 E163.17179
G1 X52.202 Y133.017 E163.27581
G1 X51.804 Y132.746 E163.33305
G1 X51.142 Y132.199 E163.43501
G1 X50.814 Y131.870 E163.49018
G1 X50.506 Y131.522 E163.54534
G1 X49.991 Y130.813 E163.64939
G1 X49.561 Y130.030 E163.75554
G1 X49.392 Y129.603 E163.81014
G1 X48.706 Y129.810 F7800.000
G1 X48.562 Y129.447 E163.85645 F1800.000
G1 X48.409 Y128.919 E163.92169
G1 X48.235 Y128.010 E164.03165
G1 X48.183 Y127.463 E164.09691
G1 X48.183 Y126.537 E164.20688
G1 X48.235 Y125.994 E164.27162
G1 X48.397 Y125.120 E164.37729
G1 X48.562 Y124.553 E164.44736
G1 X48.913 Y123.665 E164.56074
G1 X49.373 Y122.829 E164.67416
G1 X49.682 Y122.374 E164.73940
G1 X50.272 Y121.661 E164.84935
G1 X50.641 Y121.293 E164.91119
G1 X51.031 Y120.948 E164.97301
G1 X51.803 Y120.387 E165.08639
G1 X52.665 Y119.914 E165.20313
G1 X53.779 Y119.472 E165.34549
G1 X58.221 Y119.472 E165.87308 F1800.000
G1 X59.335 Y119.914 E166.01544
G1 X60.171 Y120.373 E166.12876
G1 X60.626 Y120.682 E166.19401
G1 X61.339 Y121.272 E166.30396
G1 X61.707 Y121.641 E166.36579
G1 X62.052 Y122.031 E166.42762
G1 X62.613 Y122.803 E166.54100
G1 X63.087 Y123.665 E166.65783
G1 X63.438 Y124.553 E166.77121
G1 X63.591 Y125.081 E166.83645
G1 X63.765 Y125.990 E166.94642
G1 X63.817 Y126.537 E167.01167
G1 X63.817 Y127.463 E167.12164
G1 X63.765 Y128.006 E167.18638
G1 X63.603 Y128.880 E167.29205
G1 X63.438 Y129.447 E167.36212
G1 X63.087 Y130.335 E167.47550
G1 X62.627 Y131.171 E167.58892
G1 X62.318 Y131.626 E167.65416
G1 X61.728 Y132.339 E167.76412
G1 X61.359 Y132.707 E167.82595
G1 X60.969 Y133.052 E167.88778
G1 X60.197 Y133.613 E168.00115
G1 X59.335 Y134.086 E168.11789
G1 X58.221 Y134.528 E168.26025
G1 X53.779 Y134.528 E168.78784
G1 X52.665 Y134.086 E168.93020
G1 X51.829 Y133.627 E169.04353
G1 X51.374 Y133.318 E169.10877
G1 X50.661 Y132.728 E169.21872
G1 X50.293 Y132.359 E169.28055
G1 X49.948 Y131.969 E169.34238
G1 X49.387 Y131.197 E169.45576
G1 X48.913 Y130.335 E169.57259
G1 X48.728 Y129.865 E169.63253
G1 X58.046 Y140.475 F7800.000
G1 X66.000 Y134.479 F7800.000
G1 X66.000 Y131.567 F7800.000
G1 X66.000 Y130.135 F7800.000
G1 X66.018 Y129.006 F7800.000
G1 X66.056 Y128.353 F7800.000
G1 X69.055 Y127.877 F7800.000
G1 X69.651 Y127.808 F7800.000
G1 X69.612 Y127.396 E169.68178 F1800.000
G1 X69.612 Y126.604 E169.77575
G1 X69.651 Y126.192 E169.82500
G1 X69.800 Y125.408 E169.91971
G1 X70.047 Y124.650 E170.01442
G1 X70.211 Y124.269 E170.06368
G1 X70.593 Y123.576 E170.15765
G1 X70.826 Y123.233 E170.20690
G1 X71.330 Y122.623 E170.30086
G1 X71.619 Y122.334 E170.34936
G1 X71.925 Y122.064 E170.39787
G1 X72.570 Y121.596 E170.49258
G1 X73.275 Y121.208 E170.58803
G1 X74.052 Y120.900 E170.68735
G1 X77.948 Y120.900 E171.15009 F1800.000
G1 X78.725 Y121.208 E171.24941
G1 X79.424 Y121.593 E171.34412
G1 X79.767 Y121.826 E171.39336
G1 X80.377 Y122.330 E171.48733
G1 X80.666 Y122.619 E171.53583
G1 X80.936 Y122.925 E171.58433
G1 X81.404 Y123.570 E171.67904
G1 X81.792 Y124.275 E171.77451
G1 X82.085 Y125.016 E171.86923
G1 X82.201 Y125.414 E171.91848
G1 X82.349 Y126.192 E172.01244
G1 X82.388 Y126.604 E172.06169
G1 X82.388 Y127.396 E172.15566
G1 X82.349 Y127.808 E172.20491
G1 X82.200 Y128.592 E172.29962
G1 X81.953 Y129.350 E172.39433
G1 X81.789 Y129.731 E172.44359
G1 X81.407 Y130.424 E172.53756
G1 X81.174 Y130.767 E172.58681
G1 X80.670 Y131.377 E172.68077
G1 X80.381 Y131.666 E172.72927
G1 X80.075 Y131.936 E172.77778
G1 X79.430 Y132.404 E172.87248
G1 X78.725 Y132.792 E172.96794
G1 X77.948 Y133.100 E173.06726
G1 X74.052 Y133.100 E173.53000
G1 X73.275 Y132.792 E173.62932
G1 X72.576 Y132.407 E173.72403
G1 X72.233 Y132.174 E173.77327
G1 X71.623 Y131.670 E173.86724
G1 X71.334 Y131.381 E173.91574
G1 X71.064 Y131.075 E173.96424
G1 X70.596 Y130.430 E174.05895
G1 X70.208 Y129.725 E174.15442
G1 X69.915 Y128.984 E174.24914
G1 X69.799 Y128.586 E174.29839
G1 X69.662 Y127.867 E174.38522
G1 X69.282 Y127.653 F7800.000
G1 X68.940 Y127.876 F7800.000
G1 X68.898 Y127.429 E174.43848 F1800.000
G1 X68.898 Y126.571 E174.54045
G1 X68.943 Y126.091 E174.59770
G1 X69.107 Y125.230 E174.70174
G1 X69.378 Y124.397 E174.80579
G1 X69.569 Y123.955 E174.86304
G1 X69.983 Y123.202 E174.96503
G1 X70.254 Y122.804 E175.02227
G1 X70.801 Y122.142 E175.12423
G1 X71.130 Y121.814 E175.17940
G1 X71.478 Y121.506 E175.23456
G1 X72.187 Y120.991 E175.33861
G1 X72.970 Y120.561 E175.44470
G1 X73.915 Y120.186 E175.56554
G1 X78.085 Y120.186 E176.06071 F1800.000
G1 X79.030 Y120.561 E176.18155
G1 X79.798 Y120.983 E176.28556
G1 X80.196 Y121.254 E176.34281
G1 X80.858 Y121.801 E176.44477
G1 X81.186 Y122.130 E176.49993
G1 X81.494 Y122.478 E176.55510
G1 X82.009 Y123.187 E176.65914
G1 X82.439 Y123.970 E176.76530
G1 X82.762 Y124.785 E176.86934
G1 X82.896 Y125.247 E176.92659
G1 X83.057 Y126.091 E177.02855
G1 X83.102 Y126.571 E177.08581
G1 X83.102 Y127.429 E177.18777
G1 X83.057 Y127.909 E177.24503
G1 X82.893 Y128.770 E177.34907
G1 X82.622 Y129.603 E177.45311
G1 X82.431 Y130.045 E177.51037
G1 X82.017 Y130.798 E177.61235
G1 X81.746 Y131.196 E177.66960
G1 X81.199 Y131.858 E177.77156
G1 X80.870 Y132.186 E177.82672
G1 X80.522 Y132.494 E177.88189
G1 X79.813 Y133.009 E177.98593
G1 X79.030 Y133.439 E178.09203
G1 X78.085 Y133.814 E178.21287
G1 X73.915 Y133.814 E178.70804
G1 X72.970 Y133.439 E178.82887
G1 X72.202 Y133.017 E178.93289
G1 X71.804 Y132.746 E178.99013
G1 X71.142 Y132.199 E179.09209
G1 X70.814 Y131.870 E179.14726
G1 X70.506 Y131.522 E179.20243
G1 X69.991 Y130.813 E179.30647
G1 X69.561 Y130.030 E179.41262
